X: 38314
T: Stack Of Barley, The
R: hornpipe
M: 4/4
K: Gmajor
|:gf|efed B2 dB|AG (3EFG AcBA|GFGA BA (3Bcd|e2 A2 A2 gf|
efed B2 dB|AG (3EFG AcBA|GFGA (3Bcd Ac|B2 G2 G2:|
|:GA|BABd (3gag fg|agfg (3efe de|(3gag fg ed (3Bcd|e2 A2 A2 gf|
(3efg af (3gag fe|dBAG (3ABc BA|GFGA (3Bcd Ac|B2 G2 G2:|

